!!! The Mulberry Bush 
**kern
*clefG2
*M3/4
*k[]
*C:
4cc
4cc
4cc
=1 
2cc
4ee
=2
4gg
4gg
4ee
=3
2cc
4cc
=4
4dd
4dd
4dd
=5 
2dd
4ee
=6
4dd
4cc
4b
=7
2.a
=8
4cc
4cc
4cc
=9 
2cc
4ee
=10
4gg
4gg
4ee
=11
2cc
4cc
=12 
2dd
4dd
=13
4g
4a
4b
=14
2.cc
=15
2.cc
*-
